packages/sources/icons/src/vitamix/checkbox-multiple-fill.svg

<svg width="16" height="16" viewBox="0 0 16 16" fill="none" xmlns="http://www.w3.org/2000/svg">
<path fill-rule="evenodd" clip-rule="evenodd" d="M4.66667 4.66668V2.00001C4.66667 1.63182 4.96515 1.33334 5.33334 1.33334H14C14.3682 1.33334 14.6667 1.63182 14.6667 2.00001V10.6667C14.6667 11.0349 14.3682 11.3333 14 11.3333H11.3333V13.9953C11.3333 14.366 11.034 14.6667 10.662 14.6667H2.00467C1.82657 14.6669 1.65571 14.5962 1.52977 14.4702C1.40383 14.3443 1.33316 14.1734 1.33334 13.9953L1.33534 5.33801C1.33534 4.96734 1.63467 4.66668 2.00667 4.66668H4.66667ZM6 4.66668H10.662C11.0327 4.66668 11.3333 4.96601 11.3333 5.33801V10H13.3333V2.66668H6V4.66668ZM9.43933 8.22869L5.66867 12L3.31067 9.64269L4.25334 8.70003L5.66867 10.1147L8.49667 7.28603L9.43933 8.22869Z" fill="#001018"/>
</svg>

<svg width="16" height="16" fill="none" xmlns="http://www.w3.org/2000/svg"><path fill-rule="evenodd" clip-rule="evenodd" d="M4.667 4.667V2c0-.368.298-.667.666-.667H14c.368 0 .667.299.667.667v8.667a.667.667 0 0 1-.667.666h-2.667v2.662a.67.67 0 0 1-.671.672H2.005a.67.67 0 0 1-.672-.672l.002-8.657c0-.37.3-.671.672-.671h2.66zm1.333 0h4.662a.67.67 0 0 1 .671.671V10h2V2.667H6v2zm3.44 3.562L5.668 12 3.31 9.643l.942-.943 1.416 1.415 2.828-2.829.942.943z" fill="#001018"/></svg>
